icons/gratipay.svg

<?xml version="1.0" encoding="UTF-8" standalone="no"?>
<svg width="256px" height="256px" viewBox="0 0 256 256" version="1.1" xmlns="http://www.w3.org/2000/svg" xmlns:xlink="http://www.w3.org/1999/xlink" preserveAspectRatio="xMidYMid">
    <g>
        <path d="M127.997333,0 C57.3078606,0 0,57.304 0,127.994667 C0,198.690667 57.3078606,256 127.997333,256 C198.702806,256 256,198.690667 256,127.994667 C256,57.304 198.705473,0 127.997333,0 L127.997333,0 Z M187.121232,116.872 L128.882685,195.717333 L70.6468051,116.872 C65.7187025,111.077333 60.8012667,90.904 77.713619,79.7546667 C92.1192525,70.2586667 105.802204,77.4506667 112.97302,85.784 C115.647743,88.8933333 120.231838,92.5546667 128.882685,92.5546667 C137.536199,92.5546667 142.120294,88.8933333 144.795017,85.784 C151.963166,77.4506667 165.646118,70.2586667 180.054418,79.7546667 C196.96677,90.904 192.046668,111.074667 187.121232,116.872 L187.121232,116.872 Z" fill="#663300"></path>
    </g>
</svg>

<svg xmlns="http://www.w3.org/2000/svg" viewBox="0 0 256 256">
  <path fill="#630" d="M127.997 0C57.307 0 0 57.304 0 127.995 0 198.69 57.308 256 127.997 256 198.703 256 256 198.69 256 127.995 256 57.304 198.705 0 127.997 0zm59.124 116.872-58.238 78.845-58.236-78.845c-4.928-5.795-9.846-25.968 7.067-37.117 14.405-9.496 28.088-2.304 35.259 6.029 2.675 3.11 7.259 6.77 15.91 6.77 8.653 0 13.237-3.66 15.912-6.77 7.168-8.333 20.851-15.525 35.26-6.03 16.912 11.15 11.992 31.32 7.066 37.118z"/>
</svg>
